X:1
T:Title
%%score { ( 1 3 ) | 2 }
L:1/8
Q:1/4=100
M:4/4
K:Ab
V:1 treble nm="Grand Piano"
V:3 treble 
V:2 bass 
V:1
 [CE]>[CE] [EA]>B c3 c | [Fd]>[Fd] [Fd]>[Fd] [Ec]4 | c>B =A>B c2 B2 | [CA]4 [CE]4 | %4
w: John~R.~Sweney * * * * *||||
 [CE]>[CE] [EA]>B c3 c | [Fe]>[Fd] [Fd]>[Fd] [Ec]4 | [=Dc]>[DB] [DB]>[DB] [Ac]2 [A=d]2 | %7
w: |||
[M:7/8] [Ge]- [Ge]3 E3 |[M:1/4] E>E |[M:4/4] E2 d2 d c3 | c>B F>G [DF] [CE]3 | %11
w: ||||
 [A,C][CE][EA]B cee[Ec] | z2 [=DB]2 z4 | [Ec]>[Ec] [Fd]>[Ec] c B3 | B>B c>B [DB] [CA]3 | %15
w: ||||
 AABc [Fe] [Fd]3 | [Ec]2 [DB]2 [CA]4 |] %17
w: ||
V:2
 [A,,A,]>[A,,A,] [C,A,]>[E,G,E] [A,E]3 [A,E] | [D,A,]>[D,A,] [D,A,]>[D,A,] [A,,A,]4 | %2
 [E,A,E]>[E,G,D] [E,_G,C]>[E,=G,D] [E,A,E]2 [E,D]2 | [A,,E,]4 [A,,A,]4 | %4
 [A,,A,]>[A,,A,] [A,,A,]>[E,G,E] [A,E]3 [A,E] | [D,A,]>[D,A,] [D,A,]>[D,A,] [A,,A,]4 | %6
 [B,,A,]>[B,,A,] [B,,A,]>[B,,A,] [B,,F,]2 [B,,B,]2 |[M:7/8] [E,B,]- [E,B,]3 [E,G,B,]3 | %8
[M:1/4] [E,G,B,]>[E,G,B,] |[M:4/4] [E,G,B,]2 [G,B,E]2 [A,E] [A,E]3 | %10
 [E,A,E]>[E,G,D] [E,B,D]>[E,B,D] [A,,A,] [A,,A,]3 | %11
 [A,,E,][A,,A,][C,A,][E,G,E] [A,E][A,CE][A,CE][A,,A,] | [B,,G,]2 .[B,,F,]2 [E,G,E]4 | %13
 [A,,A,]>[A,,A,] [A,,A,]>[A,,A,] [E,A,E] [E,G,D]3 | %14
 [E,G,D]>[E,G,D] [E,A,E]>[E,D] [A,,E,] [A,,E,]3 | %15
 [A,CE][A,CE][G,B,E][A,_G][K:bass] [D,A,] [D,A,]3 | [E,A,]2 [E,G,]2 [A,,E,]4 |] %17
V:3
 x8 | x8 | x8 | x8 | x8 | x8 | x8 |[M:7/8] x7 |[M:1/4] x2 |[M:4/4] x8 | x8 | x8 | [EB]2 z A, B4 | %13
 x8 | x8 | x8 | x8 |] %17

